; CNCagent Generated G-Code
; Generated on: 2025-12-05T05:44:00.077Z

; Block: program_start
O0001 (CNC程序 - 智能加工程序)
(根据特征类型和位置优化加工顺序)
G21 (毫米编程)
G40 (刀具半径补偿取消)
G49 (刀具长度补偿取消)
G80 (取消固定循环)
G90 (绝对编程)
G54 (工件坐标系1)
G0 X0. Y0. S500 M03 (主轴正转，500转/分钟，初始转速)

; Block: gcode_feat_misfw5yt4p0dw
; 加工目标孔 - 坐标: X-20, Y-5

(点孔操作 - 使用中心钻T01)
T01 M06 (换1号刀: 中心钻)
S1200 M03 (主轴正转，1200转/分钟)
G43 H01 Z100. (刀具长度补偿)
G0 X-20.000 Y-5.000 (定位到孔位置)
G81 G98 Z-2.0 R2.0 F50 (点孔，深度2mm)
G80 (取消固定循环)
G0 Z100. (抬刀到安全高度)

(钻孔操作 - 使用钻头T02)
T02 M06 (换2号刀: 钻头)
S800 M03 (主轴正转，800转/分钟)
G43 H02 Z100. (刀具长度补偿)
G0 X-20.000 Y-5.000 (定位到孔位置)
G83 G98 Z-13.8 R2.0 Q2.0 F100 (深孔钻，每次进给2mm，深度13.8mm)
G80 (取消固定循环)
G0 Z100. (抬刀到安全高度)

(沉孔操作 - 使用沉头刀T03)
T03 M06 (换3号刀: 沉头刀)
S600 M03 (主轴正转，600转/分钟)
G43 H03 Z100. (刀具长度补偿)
G0 X-20.000 Y-5.000 (定位到孔位置)
G82 G98 Z-5.5 R2.0 P2000 F80 (沉孔，深度5.5mm，暂停2秒)
G80 (取消固定循环)
G0 Z100. (抬刀到安全高度)

; Block: program_end
M05 (主轴停止)
M30 (程序结束)

