O0001 (MAIN PROGRAM)
(DESCRIPTION: FANUC CNC PROGRAM FOR FEATURE MACHINING)
(DATE: 2025-12-24)
(AUTHOR: CNC AGENT)

(PROGRAM PREPARATION)
G21 (MILLIMETER UNITS)
G90 (ABSOLUTE COORDINATE SYSTEM)
G40 (CANCEL TOOL RADIUS COMPENSATION)
G49 (CANCEL TOOL LENGTH COMPENSATION)
G80 (CANCEL FIXED CYCLE)

(COORDINATE SYSTEM SETUP)
(G90 - USE ABSOLUTE COORDINATE SYSTEM)
(ORIGIN (0,0) LOCATED AT TOP-LEFT OF WORKPIECE (G54))
(Y AXIS POSITIVE DIRECTION DOWNWARD, X AXIS POSITIVE RIGHTWARD)

(MOVE TO SAFE HEIGHT)
G00 Z100.0 (RAPID MOVE TO SAFE HEIGHT)

M03 S940 (SPINDLE FORWARD, MILLING SPEED)
G04 P1000 (DELAY 1 SECOND, WAIT FOR SPINDLE TO REACH SET SPEED)
G43 H5 Z100. (ACTIVATE TOOL LENGTH COMPENSATION FOR T05)
M08 (COOLANT ON)

(MILLING OPERATION - ELLIPSE)

(MILLING OPERATION - ELLIPSE)

(MILLING OPERATION - ELLIPSE)

(MILLING OPERATION - ELLIPSE)

(MILLING OPERATION - POLYGON)

(MILLING OPERATION - ELLIPSE)

(MILLING OPERATION - ELLIPSE)

(MILLING OPERATION - POLYGON)

(MILLING OPERATION - ELLIPSE)

(MILLING OPERATION - POLYGON)

(MILLING OPERATION - POLYGON)

(MILLING OPERATION - POLYGON)

(MILLING OPERATION - ELLIPSE)

(MILLING OPERATION - ELLIPSE)

(MILLING OPERATION - ELLIPSE)

(MILLING OPERATION - ELLIPSE)

(MILLING OPERATION - ELLIPSE)

(MILLING OPERATION - ELLIPSE)

(MILLING OPERATION - ELLIPSE)

(MILLING OPERATION - ELLIPSE)

(MILLING OPERATION - ELLIPSE)

(MILLING OPERATION - ELLIPSE)

(MILLING OPERATION - ELLIPSE)

(MILLING OPERATION - ELLIPSE)

(MILLING OPERATION - ELLIPSE)

(MILLING OPERATION - ELLIPSE)

(MILLING OPERATION - ELLIPSE)

(MILLING OPERATION - ELLIPSE)

(MILLING OPERATION - ELLIPSE)

(MILLING OPERATION - ELLIPSE)

(MILLING OPERATION - ELLIPSE)

(MILLING OPERATION - POLYGON)

(MILLING OPERATION - ELLIPSE)

(MILLING OPERATION - ELLIPSE)

(MILLING OPERATION - ELLIPSE)

(MILLING OPERATION - ELLIPSE)

(MILLING OPERATION - ELLIPSE)

(MILLING OPERATION - ELLIPSE)

(MILLING OPERATION - ELLIPSE)

(MILLING OPERATION - ELLIPSE)

(MILLING OPERATION - ELLIPSE)

(MILLING OPERATION - ELLIPSE)

(MILLING OPERATION - ELLIPSE)

(MILLING OPERATION - ELLIPSE)

(MILLING OPERATION - POLYGON)

(MILLING OPERATION - ELLIPSE)

(MILLING OPERATION - ELLIPSE)

(MILLING OPERATION - POLYGON)

(MILLING OPERATION - ELLIPSE)

(MILLING OPERATION - CIRCLE)
G00 X686.000 Y425.000 (MOVE TO CIRCULAR ARC START POINT)
G01 Z-5.172 F76.6 (INITIAL CUTTING)
G02 X686.000 Y425.000 I12.000 J0 F153.10344827586206 (CLOCKWISE CIRCULAR MILLING)
G01 Z-10.345 F76.6 (CONTINUE CUTTING)
G02 X686.000 Y425.000 I12.000 J0 F153.10344827586206 (CLOCKWISE CIRCULAR MILLING)

(MILLING OPERATION - CIRCLE)
G00 X686.000 Y425.000 (MOVE TO CIRCULAR ARC START POINT)
G01 Z-5.172 F76.6 (INITIAL CUTTING)
G02 X686.000 Y425.000 I12.000 J0 F153.10344827586206 (CLOCKWISE CIRCULAR MILLING)
G01 Z-10.345 F76.6 (CONTINUE CUTTING)
G02 X686.000 Y425.000 I12.000 J0 F153.10344827586206 (CLOCKWISE CIRCULAR MILLING)

(MILLING OPERATION - CIRCLE)
G00 X686.000 Y425.000 (MOVE TO CIRCULAR ARC START POINT)
G01 Z-5.172 F76.6 (INITIAL CUTTING)
G02 X686.000 Y425.000 I12.000 J0 F153.10344827586206 (CLOCKWISE CIRCULAR MILLING)
G01 Z-10.345 F76.6 (CONTINUE CUTTING)
G02 X686.000 Y425.000 I12.000 J0 F153.10344827586206 (CLOCKWISE CIRCULAR MILLING)

(MILLING OPERATION - CIRCLE)
G00 X686.000 Y425.000 (MOVE TO CIRCULAR ARC START POINT)
G01 Z-5.172 F76.6 (INITIAL CUTTING)
G02 X686.000 Y425.000 I12.000 J0 F153.10344827586206 (CLOCKWISE CIRCULAR MILLING)
G01 Z-10.345 F76.6 (CONTINUE CUTTING)
G02 X686.000 Y425.000 I12.000 J0 F153.10344827586206 (CLOCKWISE CIRCULAR MILLING)

(MILLING OPERATION - CIRCLE)
G00 X686.000 Y425.000 (MOVE TO CIRCULAR ARC START POINT)
G01 Z-5.172 F76.6 (INITIAL CUTTING)
G02 X686.000 Y425.000 I12.000 J0 F153.10344827586206 (CLOCKWISE CIRCULAR MILLING)
G01 Z-10.345 F76.6 (CONTINUE CUTTING)
G02 X686.000 Y425.000 I12.000 J0 F153.10344827586206 (CLOCKWISE CIRCULAR MILLING)

(MILLING OPERATION - CIRCLE)
G00 X686.000 Y425.000 (MOVE TO CIRCULAR ARC START POINT)
G01 Z-5.172 F76.6 (INITIAL CUTTING)
G02 X686.000 Y425.000 I12.000 J0 F153.10344827586206 (CLOCKWISE CIRCULAR MILLING)
G01 Z-10.345 F76.6 (CONTINUE CUTTING)
G02 X686.000 Y425.000 I12.000 J0 F153.10344827586206 (CLOCKWISE CIRCULAR MILLING)

(MILLING OPERATION - CIRCLE)
G00 X686.000 Y425.000 (MOVE TO CIRCULAR ARC START POINT)
G01 Z-5.172 F76.6 (INITIAL CUTTING)
G02 X686.000 Y425.000 I12.000 J0 F153.10344827586206 (CLOCKWISE CIRCULAR MILLING)
G01 Z-10.345 F76.6 (CONTINUE CUTTING)
G02 X686.000 Y425.000 I12.000 J0 F153.10344827586206 (CLOCKWISE CIRCULAR MILLING)

(MILLING OPERATION - CIRCLE)
G00 X686.000 Y425.000 (MOVE TO CIRCULAR ARC START POINT)
G01 Z-5.172 F76.6 (INITIAL CUTTING)
G02 X686.000 Y425.000 I12.000 J0 F153.10344827586206 (CLOCKWISE CIRCULAR MILLING)
G01 Z-10.345 F76.6 (CONTINUE CUTTING)
G02 X686.000 Y425.000 I12.000 J0 F153.10344827586206 (CLOCKWISE CIRCULAR MILLING)

(MILLING OPERATION - CIRCLE)
G00 X686.000 Y425.000 (MOVE TO CIRCULAR ARC START POINT)
G01 Z-5.172 F76.6 (INITIAL CUTTING)
G02 X686.000 Y425.000 I12.000 J0 F153.10344827586206 (CLOCKWISE CIRCULAR MILLING)
G01 Z-10.345 F76.6 (CONTINUE CUTTING)
G02 X686.000 Y425.000 I12.000 J0 F153.10344827586206 (CLOCKWISE CIRCULAR MILLING)

(MILLING OPERATION - CIRCLE)
G00 X686.000 Y425.000 (MOVE TO CIRCULAR ARC START POINT)
G01 Z-5.172 F76.6 (INITIAL CUTTING)
G02 X686.000 Y425.000 I12.000 J0 F153.10344827586206 (CLOCKWISE CIRCULAR MILLING)
G01 Z-10.345 F76.6 (CONTINUE CUTTING)
G02 X686.000 Y425.000 I12.000 J0 F153.10344827586206 (CLOCKWISE CIRCULAR MILLING)

(MILLING OPERATION - CIRCLE)
G00 X686.000 Y425.000 (MOVE TO CIRCULAR ARC START POINT)
G01 Z-5.172 F76.6 (INITIAL CUTTING)
G02 X686.000 Y425.000 I12.000 J0 F153.10344827586206 (CLOCKWISE CIRCULAR MILLING)
G01 Z-10.345 F76.6 (CONTINUE CUTTING)
G02 X686.000 Y425.000 I12.000 J0 F153.10344827586206 (CLOCKWISE CIRCULAR MILLING)

(MILLING OPERATION - CIRCLE)
G00 X686.000 Y425.000 (MOVE TO CIRCULAR ARC START POINT)
G01 Z-5.172 F76.6 (INITIAL CUTTING)
G02 X686.000 Y425.000 I12.000 J0 F153.10344827586206 (CLOCKWISE CIRCULAR MILLING)
G01 Z-10.345 F76.6 (CONTINUE CUTTING)
G02 X686.000 Y425.000 I12.000 J0 F153.10344827586206 (CLOCKWISE CIRCULAR MILLING)

(MILLING OPERATION - CIRCLE)
G00 X686.000 Y425.000 (MOVE TO CIRCULAR ARC START POINT)
G01 Z-5.172 F76.6 (INITIAL CUTTING)
G02 X686.000 Y425.000 I12.000 J0 F153.10344827586206 (CLOCKWISE CIRCULAR MILLING)
G01 Z-10.345 F76.6 (CONTINUE CUTTING)
G02 X686.000 Y425.000 I12.000 J0 F153.10344827586206 (CLOCKWISE CIRCULAR MILLING)

(MILLING OPERATION - CIRCLE)
G00 X686.000 Y425.000 (MOVE TO CIRCULAR ARC START POINT)
G01 Z-5.172 F76.6 (INITIAL CUTTING)
G02 X686.000 Y425.000 I12.000 J0 F153.10344827586206 (CLOCKWISE CIRCULAR MILLING)
G01 Z-10.345 F76.6 (CONTINUE CUTTING)
G02 X686.000 Y425.000 I12.000 J0 F153.10344827586206 (CLOCKWISE CIRCULAR MILLING)

(MILLING OPERATION - CIRCLE)
G00 X686.000 Y425.000 (MOVE TO CIRCULAR ARC START POINT)
G01 Z-5.172 F76.6 (INITIAL CUTTING)
G02 X686.000 Y425.000 I12.000 J0 F153.10344827586206 (CLOCKWISE CIRCULAR MILLING)
G01 Z-10.345 F76.6 (CONTINUE CUTTING)
G02 X686.000 Y425.000 I12.000 J0 F153.10344827586206 (CLOCKWISE CIRCULAR MILLING)

(MILLING OPERATION - CIRCLE)
G00 X686.000 Y425.000 (MOVE TO CIRCULAR ARC START POINT)
G01 Z-5.172 F76.6 (INITIAL CUTTING)
G02 X686.000 Y425.000 I12.000 J0 F153.10344827586206 (CLOCKWISE CIRCULAR MILLING)
G01 Z-10.345 F76.6 (CONTINUE CUTTING)
G02 X686.000 Y425.000 I12.000 J0 F153.10344827586206 (CLOCKWISE CIRCULAR MILLING)

(MILLING OPERATION - CIRCLE)
G00 X686.000 Y425.000 (MOVE TO CIRCULAR ARC START POINT)
G01 Z-5.172 F76.6 (INITIAL CUTTING)
G02 X686.000 Y425.000 I12.000 J0 F153.10344827586206 (CLOCKWISE CIRCULAR MILLING)
G01 Z-10.345 F76.6 (CONTINUE CUTTING)
G02 X686.000 Y425.000 I12.000 J0 F153.10344827586206 (CLOCKWISE CIRCULAR MILLING)

(MILLING OPERATION - CIRCLE)
G00 X686.000 Y425.000 (MOVE TO CIRCULAR ARC START POINT)
G01 Z-5.172 F76.6 (INITIAL CUTTING)
G02 X686.000 Y425.000 I12.000 J0 F153.10344827586206 (CLOCKWISE CIRCULAR MILLING)
G01 Z-10.345 F76.6 (CONTINUE CUTTING)
G02 X686.000 Y425.000 I12.000 J0 F153.10344827586206 (CLOCKWISE CIRCULAR MILLING)

(MILLING OPERATION - CIRCLE)
G00 X686.000 Y425.000 (MOVE TO CIRCULAR ARC START POINT)
G01 Z-5.172 F76.6 (INITIAL CUTTING)
G02 X686.000 Y425.000 I12.000 J0 F153.10344827586206 (CLOCKWISE CIRCULAR MILLING)
G01 Z-10.345 F76.6 (CONTINUE CUTTING)
G02 X686.000 Y425.000 I12.000 J0 F153.10344827586206 (CLOCKWISE CIRCULAR MILLING)

(MILLING OPERATION - CIRCLE)
G00 X686.000 Y425.000 (MOVE TO CIRCULAR ARC START POINT)
G01 Z-5.172 F76.6 (INITIAL CUTTING)
G02 X686.000 Y425.000 I12.000 J0 F153.10344827586206 (CLOCKWISE CIRCULAR MILLING)
G01 Z-10.345 F76.6 (CONTINUE CUTTING)
G02 X686.000 Y425.000 I12.000 J0 F153.10344827586206 (CLOCKWISE CIRCULAR MILLING)

(MILLING OPERATION - CIRCLE)
G00 X686.000 Y425.000 (MOVE TO CIRCULAR ARC START POINT)
G01 Z-5.172 F76.6 (INITIAL CUTTING)
G02 X686.000 Y425.000 I12.000 J0 F153.10344827586206 (CLOCKWISE CIRCULAR MILLING)
G01 Z-10.345 F76.6 (CONTINUE CUTTING)
G02 X686.000 Y425.000 I12.000 J0 F153.10344827586206 (CLOCKWISE CIRCULAR MILLING)
M09 (COOLANT OFF)
G00 Z100.0 (RAPID MOVE TO UNIFIED SAFE HEIGHT)
G49 (CANCEL TOOL LENGTH COMPENSATION)

(PROGRAM END)
M05 (SPINDLE STOP)
G00 Z100 (RAISE TOOL TO SAFE HEIGHT)
G00 X0.0 Y0.0 (RETURN TO ORIGIN)
G00 Z0 (RETURN Z-AXIS TO ORIGIN)
M30 (PROGRAM END)