O0001 (MAIN PROGRAM)
(DESCRIPTION: FANUC CNC PROGRAM FOR FEATURE MACHINING)
(DATE: 2025-12-29)
(AUTHOR: CNC AGENT)

(PROGRAM PREPARATION)
G21 (MILLIMETER UNITS)
G90 (ABSOLUTE COORDINATE SYSTEM)
G40 (CANCEL TOOL RADIUS COMPENSATION)
G49 (CANCEL TOOL LENGTH COMPENSATION)
G80 (CANCEL FIXED CYCLE)

(COORDINATE SYSTEM SETUP)
(G90 - USE ABSOLUTE COORDINATE SYSTEM)
(USER COORDINATE SYSTEM - COORDINATES RELATIVE TO WORKPIECE DATUM)
(X,Y COORDINATES ARE ADJUSTED BASED ON FEATURE POSITIONS)

(MOVE TO SAFE HEIGHT)
G00 Z100.0 (RAPID MOVE TO SAFE HEIGHT)

M03 S1200 (SPINDLE FORWARD, ROUGHING SPEED)
G04 P1000 (DELAY 1 SECOND, WAIT FOR SPINDLE TO REACH SET SPEED)
G43 H5 Z100. (ACTIVATE TOOL LENGTH COMPENSATION FOR T05)
M08 (COOLANT ON)

(MILLING OPERATION - RECTANGLE)
(ROUGHING PASS - DEPTH: 0.900mm, STEP: 10.000mm)
G00 X-195.000 Y-145.000 (MOVE TO START OF ROUGHING PASS 1)
G01 Z-0.900 F400.0 (ENGAGE MATERIAL)
G01 X195.000 F800 (ROUGHING PASS)
G01 Y-135.000 F400.0 (MOVE TO NEXT PASS)
G00 X195.000 Y-135.000 (MOVE TO START OF ROUGHING PASS 1)
G01 Z-0.900 F400.0 (ENGAGE MATERIAL)
G01 X-195.000 F800 (ROUGHING PASS)
G01 Y-125.000 F400.0 (MOVE TO NEXT PASS)
G00 X-195.000 Y-125.000 (MOVE TO START OF ROUGHING PASS 1)
G01 Z-0.900 F400.0 (ENGAGE MATERIAL)
G01 X195.000 F800 (ROUGHING PASS)
G01 Y-115.000 F400.0 (MOVE TO NEXT PASS)
G00 X195.000 Y-115.000 (MOVE TO START OF ROUGHING PASS 1)
G01 Z-0.900 F400.0 (ENGAGE MATERIAL)
G01 X-195.000 F800 (ROUGHING PASS)
G01 Y-105.000 F400.0 (MOVE TO NEXT PASS)
G00 X-195.000 Y-105.000 (MOVE TO START OF ROUGHING PASS 1)
G01 Z-0.900 F400.0 (ENGAGE MATERIAL)
G01 X195.000 F800 (ROUGHING PASS)
G01 Y-95.000 F400.0 (MOVE TO NEXT PASS)
G00 X195.000 Y-95.000 (MOVE TO START OF ROUGHING PASS 1)
G01 Z-0.900 F400.0 (ENGAGE MATERIAL)
G01 X-195.000 F800 (ROUGHING PASS)
G01 Y-85.000 F400.0 (MOVE TO NEXT PASS)
G00 X-195.000 Y-85.000 (MOVE TO START OF ROUGHING PASS 1)
G01 Z-0.900 F400.0 (ENGAGE MATERIAL)
G01 X195.000 F800 (ROUGHING PASS)
G01 Y-75.000 F400.0 (MOVE TO NEXT PASS)
G00 X195.000 Y-75.000 (MOVE TO START OF ROUGHING PASS 1)
G01 Z-0.900 F400.0 (ENGAGE MATERIAL)
G01 X-195.000 F800 (ROUGHING PASS)
G01 Y-65.000 F400.0 (MOVE TO NEXT PASS)
G00 X-195.000 Y-65.000 (MOVE TO START OF ROUGHING PASS 1)
G01 Z-0.900 F400.0 (ENGAGE MATERIAL)
G01 X195.000 F800 (ROUGHING PASS)
G01 Y-55.000 F400.0 (MOVE TO NEXT PASS)
G00 X195.000 Y-55.000 (MOVE TO START OF ROUGHING PASS 1)
G01 Z-0.900 F400.0 (ENGAGE MATERIAL)
G01 X-195.000 F800 (ROUGHING PASS)
G01 Y-45.000 F400.0 (MOVE TO NEXT PASS)
G00 X-195.000 Y-45.000 (MOVE TO START OF ROUGHING PASS 1)
G01 Z-0.900 F400.0 (ENGAGE MATERIAL)
G01 X195.000 F800 (ROUGHING PASS)
G01 Y-35.000 F400.0 (MOVE TO NEXT PASS)
G00 X195.000 Y-35.000 (MOVE TO START OF ROUGHING PASS 1)
G01 Z-0.900 F400.0 (ENGAGE MATERIAL)
G01 X-195.000 F800 (ROUGHING PASS)
G01 Y-25.000 F400.0 (MOVE TO NEXT PASS)
G00 X-195.000 Y-25.000 (MOVE TO START OF ROUGHING PASS 1)
G01 Z-0.900 F400.0 (ENGAGE MATERIAL)
G01 X195.000 F800 (ROUGHING PASS)
G01 Y-15.000 F400.0 (MOVE TO NEXT PASS)
G00 X195.000 Y-15.000 (MOVE TO START OF ROUGHING PASS 1)
G01 Z-0.900 F400.0 (ENGAGE MATERIAL)
G01 X-195.000 F800 (ROUGHING PASS)
G01 Y-5.000 F400.0 (MOVE TO NEXT PASS)
G00 X-195.000 Y-5.000 (MOVE TO START OF ROUGHING PASS 1)
G01 Z-0.900 F400.0 (ENGAGE MATERIAL)
G01 X195.000 F800 (ROUGHING PASS)
G01 Y5.000 F400.0 (MOVE TO NEXT PASS)
G00 X195.000 Y5.000 (MOVE TO START OF ROUGHING PASS 1)
G01 Z-0.900 F400.0 (ENGAGE MATERIAL)
G01 X-195.000 F800 (ROUGHING PASS)
G01 Y15.000 F400.0 (MOVE TO NEXT PASS)
G00 X-195.000 Y15.000 (MOVE TO START OF ROUGHING PASS 1)
G01 Z-0.900 F400.0 (ENGAGE MATERIAL)
G01 X195.000 F800 (ROUGHING PASS)
G01 Y25.000 F400.0 (MOVE TO NEXT PASS)
G00 X195.000 Y25.000 (MOVE TO START OF ROUGHING PASS 1)
G01 Z-0.900 F400.0 (ENGAGE MATERIAL)
G01 X-195.000 F800 (ROUGHING PASS)
G01 Y35.000 F400.0 (MOVE TO NEXT PASS)
G00 X-195.000 Y35.000 (MOVE TO START OF ROUGHING PASS 1)
G01 Z-0.900 F400.0 (ENGAGE MATERIAL)
G01 X195.000 F800 (ROUGHING PASS)
G01 Y45.000 F400.0 (MOVE TO NEXT PASS)
G00 X195.000 Y45.000 (MOVE TO START OF ROUGHING PASS 1)
G01 Z-0.900 F400.0 (ENGAGE MATERIAL)
G01 X-195.000 F800 (ROUGHING PASS)
G01 Y55.000 F400.0 (MOVE TO NEXT PASS)
G00 X-195.000 Y55.000 (MOVE TO START OF ROUGHING PASS 1)
G01 Z-0.900 F400.0 (ENGAGE MATERIAL)
G01 X195.000 F800 (ROUGHING PASS)
G01 Y65.000 F400.0 (MOVE TO NEXT PASS)
G00 X195.000 Y65.000 (MOVE TO START OF ROUGHING PASS 1)
G01 Z-0.900 F400.0 (ENGAGE MATERIAL)
G01 X-195.000 F800 (ROUGHING PASS)
G01 Y75.000 F400.0 (MOVE TO NEXT PASS)
G00 X-195.000 Y75.000 (MOVE TO START OF ROUGHING PASS 1)
G01 Z-0.900 F400.0 (ENGAGE MATERIAL)
G01 X195.000 F800 (ROUGHING PASS)
G01 Y85.000 F400.0 (MOVE TO NEXT PASS)
G00 X195.000 Y85.000 (MOVE TO START OF ROUGHING PASS 1)
G01 Z-0.900 F400.0 (ENGAGE MATERIAL)
G01 X-195.000 F800 (ROUGHING PASS)
G01 Y95.000 F400.0 (MOVE TO NEXT PASS)
G00 X-195.000 Y95.000 (MOVE TO START OF ROUGHING PASS 1)
G01 Z-0.900 F400.0 (ENGAGE MATERIAL)
G01 X195.000 F800 (ROUGHING PASS)
G01 Y105.000 F400.0 (MOVE TO NEXT PASS)
G00 X195.000 Y105.000 (MOVE TO START OF ROUGHING PASS 1)
G01 Z-0.900 F400.0 (ENGAGE MATERIAL)
G01 X-195.000 F800 (ROUGHING PASS)
G01 Y115.000 F400.0 (MOVE TO NEXT PASS)
G00 X-195.000 Y115.000 (MOVE TO START OF ROUGHING PASS 1)
G01 Z-0.900 F400.0 (ENGAGE MATERIAL)
G01 X195.000 F800 (ROUGHING PASS)
G01 Y125.000 F400.0 (MOVE TO NEXT PASS)
G00 X195.000 Y125.000 (MOVE TO START OF ROUGHING PASS 1)
G01 Z-0.900 F400.0 (ENGAGE MATERIAL)
G01 X-195.000 F800 (ROUGHING PASS)
G01 Y135.000 F400.0 (MOVE TO NEXT PASS)
G00 X-195.000 Y135.000 (MOVE TO START OF ROUGHING PASS 1)
G01 Z-0.900 F400.0 (ENGAGE MATERIAL)
G01 X195.000 F800 (ROUGHING PASS)
G01 Y145.000 F400.0 (MOVE TO NEXT PASS)
G00 X195.000 Y145.000 (MOVE TO START OF ROUGHING PASS 1)
G01 Z-0.900 F400.0 (ENGAGE MATERIAL)
G01 X-195.000 F800 (ROUGHING PASS)
G00 X-195.000 Y-145.000 (MOVE TO START OF ROUGHING PASS 2)
G01 Z-1.800 F400.0 (ENGAGE MATERIAL)
G01 X195.000 F800 (ROUGHING PASS)
G01 Y-135.000 F400.0 (MOVE TO NEXT PASS)
G00 X195.000 Y-135.000 (MOVE TO START OF ROUGHING PASS 2)
G01 Z-1.800 F400.0 (ENGAGE MATERIAL)
G01 X-195.000 F800 (ROUGHING PASS)
G01 Y-125.000 F400.0 (MOVE TO NEXT PASS)
G00 X-195.000 Y-125.000 (MOVE TO START OF ROUGHING PASS 2)
G01 Z-1.800 F400.0 (ENGAGE MATERIAL)
G01 X195.000 F800 (ROUGHING PASS)
G01 Y-115.000 F400.0 (MOVE TO NEXT PASS)
G00 X195.000 Y-115.000 (MOVE TO START OF ROUGHING PASS 2)
G01 Z-1.800 F400.0 (ENGAGE MATERIAL)
G01 X-195.000 F800 (ROUGHING PASS)
G01 Y-105.000 F400.0 (MOVE TO NEXT PASS)
G00 X-195.000 Y-105.000 (MOVE TO START OF ROUGHING PASS 2)
G01 Z-1.800 F400.0 (ENGAGE MATERIAL)
G01 X195.000 F800 (ROUGHING PASS)
G01 Y-95.000 F400.0 (MOVE TO NEXT PASS)
G00 X195.000 Y-95.000 (MOVE TO START OF ROUGHING PASS 2)
G01 Z-1.800 F400.0 (ENGAGE MATERIAL)
G01 X-195.000 F800 (ROUGHING PASS)
G01 Y-85.000 F400.0 (MOVE TO NEXT PASS)
G00 X-195.000 Y-85.000 (MOVE TO START OF ROUGHING PASS 2)
G01 Z-1.800 F400.0 (ENGAGE MATERIAL)
G01 X195.000 F800 (ROUGHING PASS)
G01 Y-75.000 F400.0 (MOVE TO NEXT PASS)
G00 X195.000 Y-75.000 (MOVE TO START OF ROUGHING PASS 2)
G01 Z-1.800 F400.0 (ENGAGE MATERIAL)
G01 X-195.000 F800 (ROUGHING PASS)
G01 Y-65.000 F400.0 (MOVE TO NEXT PASS)
G00 X-195.000 Y-65.000 (MOVE TO START OF ROUGHING PASS 2)
G01 Z-1.800 F400.0 (ENGAGE MATERIAL)
G01 X195.000 F800 (ROUGHING PASS)
G01 Y-55.000 F400.0 (MOVE TO NEXT PASS)
G00 X195.000 Y-55.000 (MOVE TO START OF ROUGHING PASS 2)
G01 Z-1.800 F400.0 (ENGAGE MATERIAL)
G01 X-195.000 F800 (ROUGHING PASS)
G01 Y-45.000 F400.0 (MOVE TO NEXT PASS)
G00 X-195.000 Y-45.000 (MOVE TO START OF ROUGHING PASS 2)
G01 Z-1.800 F400.0 (ENGAGE MATERIAL)
G01 X195.000 F800 (ROUGHING PASS)
G01 Y-35.000 F400.0 (MOVE TO NEXT PASS)
G00 X195.000 Y-35.000 (MOVE TO START OF ROUGHING PASS 2)
G01 Z-1.800 F400.0 (ENGAGE MATERIAL)
G01 X-195.000 F800 (ROUGHING PASS)
G01 Y-25.000 F400.0 (MOVE TO NEXT PASS)
G00 X-195.000 Y-25.000 (MOVE TO START OF ROUGHING PASS 2)
G01 Z-1.800 F400.0 (ENGAGE MATERIAL)
G01 X195.000 F800 (ROUGHING PASS)
G01 Y-15.000 F400.0 (MOVE TO NEXT PASS)
G00 X195.000 Y-15.000 (MOVE TO START OF ROUGHING PASS 2)
G01 Z-1.800 F400.0 (ENGAGE MATERIAL)
G01 X-195.000 F800 (ROUGHING PASS)
G01 Y-5.000 F400.0 (MOVE TO NEXT PASS)
G00 X-195.000 Y-5.000 (MOVE TO START OF ROUGHING PASS 2)
G01 Z-1.800 F400.0 (ENGAGE MATERIAL)
G01 X195.000 F800 (ROUGHING PASS)
G01 Y5.000 F400.0 (MOVE TO NEXT PASS)
G00 X195.000 Y5.000 (MOVE TO START OF ROUGHING PASS 2)
G01 Z-1.800 F400.0 (ENGAGE MATERIAL)
G01 X-195.000 F800 (ROUGHING PASS)
G01 Y15.000 F400.0 (MOVE TO NEXT PASS)
G00 X-195.000 Y15.000 (MOVE TO START OF ROUGHING PASS 2)
G01 Z-1.800 F400.0 (ENGAGE MATERIAL)
G01 X195.000 F800 (ROUGHING PASS)
G01 Y25.000 F400.0 (MOVE TO NEXT PASS)
G00 X195.000 Y25.000 (MOVE TO START OF ROUGHING PASS 2)
G01 Z-1.800 F400.0 (ENGAGE MATERIAL)
G01 X-195.000 F800 (ROUGHING PASS)
G01 Y35.000 F400.0 (MOVE TO NEXT PASS)
G00 X-195.000 Y35.000 (MOVE TO START OF ROUGHING PASS 2)
G01 Z-1.800 F400.0 (ENGAGE MATERIAL)
G01 X195.000 F800 (ROUGHING PASS)
G01 Y45.000 F400.0 (MOVE TO NEXT PASS)
G00 X195.000 Y45.000 (MOVE TO START OF ROUGHING PASS 2)
G01 Z-1.800 F400.0 (ENGAGE MATERIAL)
G01 X-195.000 F800 (ROUGHING PASS)
G01 Y55.000 F400.0 (MOVE TO NEXT PASS)
G00 X-195.000 Y55.000 (MOVE TO START OF ROUGHING PASS 2)
G01 Z-1.800 F400.0 (ENGAGE MATERIAL)
G01 X195.000 F800 (ROUGHING PASS)
G01 Y65.000 F400.0 (MOVE TO NEXT PASS)
G00 X195.000 Y65.000 (MOVE TO START OF ROUGHING PASS 2)
G01 Z-1.800 F400.0 (ENGAGE MATERIAL)
G01 X-195.000 F800 (ROUGHING PASS)
G01 Y75.000 F400.0 (MOVE TO NEXT PASS)
G00 X-195.000 Y75.000 (MOVE TO START OF ROUGHING PASS 2)
G01 Z-1.800 F400.0 (ENGAGE MATERIAL)
G01 X195.000 F800 (ROUGHING PASS)
G01 Y85.000 F400.0 (MOVE TO NEXT PASS)
G00 X195.000 Y85.000 (MOVE TO START OF ROUGHING PASS 2)
G01 Z-1.800 F400.0 (ENGAGE MATERIAL)
G01 X-195.000 F800 (ROUGHING PASS)
G01 Y95.000 F400.0 (MOVE TO NEXT PASS)
G00 X-195.000 Y95.000 (MOVE TO START OF ROUGHING PASS 2)
G01 Z-1.800 F400.0 (ENGAGE MATERIAL)
G01 X195.000 F800 (ROUGHING PASS)
G01 Y105.000 F400.0 (MOVE TO NEXT PASS)
G00 X195.000 Y105.000 (MOVE TO START OF ROUGHING PASS 2)
G01 Z-1.800 F400.0 (ENGAGE MATERIAL)
G01 X-195.000 F800 (ROUGHING PASS)
G01 Y115.000 F400.0 (MOVE TO NEXT PASS)
G00 X-195.000 Y115.000 (MOVE TO START OF ROUGHING PASS 2)
G01 Z-1.800 F400.0 (ENGAGE MATERIAL)
G01 X195.000 F800 (ROUGHING PASS)
G01 Y125.000 F400.0 (MOVE TO NEXT PASS)
G00 X195.000 Y125.000 (MOVE TO START OF ROUGHING PASS 2)
G01 Z-1.800 F400.0 (ENGAGE MATERIAL)
G01 X-195.000 F800 (ROUGHING PASS)
G01 Y135.000 F400.0 (MOVE TO NEXT PASS)
G00 X-195.000 Y135.000 (MOVE TO START OF ROUGHING PASS 2)
G01 Z-1.800 F400.0 (ENGAGE MATERIAL)
G01 X195.000 F800 (ROUGHING PASS)
G01 Y145.000 F400.0 (MOVE TO NEXT PASS)
G00 X195.000 Y145.000 (MOVE TO START OF ROUGHING PASS 2)
G01 Z-1.800 F400.0 (ENGAGE MATERIAL)
G01 X-195.000 F800 (ROUGHING PASS)
(FINISHING PASS - ALLOWANCE: 0.200mm)
G00 X-198.000 Y-148.000 (MOVE TO FINISHING START POINT)
G01 Z-2.000 F200.0 (ENGAGE MATERIAL FOR FINISHING)
G01 X198.000 F400 (MILL X POSITIVE EDGE)
G01 Y148.000 F400 (MILL Y POSITIVE EDGE)
G01 X-198.000 F400 (MILL X NEGATIVE EDGE)
G01 Y-148.000 F400 (MILL Y NEGATIVE EDGE)

(MILLING OPERATION - CIRCLE)
(ROUGHING PASS - DEPTH: 0.900mm)
(FINISHING PASS - ALLOWANCE: 0.200mm)
G00 X-6.000 Y0.000 (MOVE TO CIRCULAR FINISHING START POINT)
G01 Z-2.000 F200.0 (ENGAGE MATERIAL FOR FINISHING)
G02 X-6.000 Y0.000 I6.000 J0 F400 (CLOCKWISE FINISH CIRCULAR MILLING)
M09 (COOLANT OFF)
G00 Z100.0 (RAPID MOVE TO UNIFIED SAFE HEIGHT)
G49 (CANCEL TOOL LENGTH COMPENSATION)

(PROGRAM END)
M05 (SPINDLE STOP)
G00 Z100.0 (RAISE TOOL TO SAFE HEIGHT)
G00 X10.0 Y10.0 (MOVE TO SAFE POSITION - USER CAN MODIFY AS NEEDED)
M30 (PROGRAM END)