O0001 (MAIN PROGRAM)
(DESCRIPTION: FANUC CNC PROGRAM FOR FEATURE MACHINING)
(DATE: 2025-12-29)
(AUTHOR: CNC AGENT)

(PROGRAM PREPARATION)
G21 (MILLIMETER UNITS)
G90 (ABSOLUTE COORDINATE SYSTEM)
G40 (CANCEL TOOL RADIUS COMPENSATION)
G49 (CANCEL TOOL LENGTH COMPENSATION)
G80 (CANCEL FIXED CYCLE)

(COORDINATE SYSTEM SETUP)
(G90 - USE ABSOLUTE COORDINATE SYSTEM)
(USER COORDINATE SYSTEM - COORDINATES RELATIVE TO WORKPIECE DATUM)
(X,Y COORDINATES ARE ADJUSTED BASED ON FEATURE POSITIONS)

(MOVE TO SAFE HEIGHT)
G00 Z100.0 (RAPID MOVE TO SAFE HEIGHT)

M03 S1314 (SPINDLE FORWARD, MILLING SPEED)
G04 P1000 (DELAY 1 SECOND, WAIT FOR SPINDLE TO REACH SET SPEED)
G43 H5 Z100. (ACTIVATE TOOL LENGTH COMPENSATION FOR T05)
M08 (COOLANT ON)

(MILLING OPERATION - RECTANGLE)
G00 X-168.500 Y-118.500 (MOVE TO MILLING START POINT 1)
G01 Z-1.000 F402.3 (INITIAL CUTTING)
G01 X168.500 Y-118.500 F804.6 (MILLING PASS)
G00 Z100.0 (RAISE TOOL TO SAFE HEIGHT)
G00 X-168.500 Y-105.900 (MOVE TO MILLING START POINT 2)
G01 Z-1.000 F402.3 (INITIAL CUTTING)
G01 X-168.500 Y-105.900 F804.6 (MILLING PASS)
G00 Z100.0 (RAISE TOOL TO SAFE HEIGHT)
G00 X-168.500 Y-93.300 (MOVE TO MILLING START POINT 3)
G01 Z-1.000 F402.3 (INITIAL CUTTING)
G01 X168.500 Y-93.300 F804.6 (MILLING PASS)
G00 Z100.0 (RAISE TOOL TO SAFE HEIGHT)
G00 X-168.500 Y-80.700 (MOVE TO MILLING START POINT 4)
G01 Z-1.000 F402.3 (INITIAL CUTTING)
G01 X-168.500 Y-80.700 F804.6 (MILLING PASS)
G00 Z100.0 (RAISE TOOL TO SAFE HEIGHT)
G00 X-168.500 Y-68.100 (MOVE TO MILLING START POINT 5)
G01 Z-1.000 F402.3 (INITIAL CUTTING)
G01 X168.500 Y-68.100 F804.6 (MILLING PASS)
G00 Z100.0 (RAISE TOOL TO SAFE HEIGHT)
G00 X-168.500 Y-55.500 (MOVE TO MILLING START POINT 6)
G01 Z-1.000 F402.3 (INITIAL CUTTING)
G01 X-168.500 Y-55.500 F804.6 (MILLING PASS)
G00 Z100.0 (RAISE TOOL TO SAFE HEIGHT)
G00 X-168.500 Y-42.900 (MOVE TO MILLING START POINT 7)
G01 Z-1.000 F402.3 (INITIAL CUTTING)
G01 X168.500 Y-42.900 F804.6 (MILLING PASS)
G00 Z100.0 (RAISE TOOL TO SAFE HEIGHT)
G00 X-168.500 Y-30.300 (MOVE TO MILLING START POINT 8)
G01 Z-1.000 F402.3 (INITIAL CUTTING)
G01 X-168.500 Y-30.300 F804.6 (MILLING PASS)
G00 Z100.0 (RAISE TOOL TO SAFE HEIGHT)
G00 X-168.500 Y-17.700 (MOVE TO MILLING START POINT 9)
G01 Z-1.000 F402.3 (INITIAL CUTTING)
G01 X168.500 Y-17.700 F804.6 (MILLING PASS)
G00 Z100.0 (RAISE TOOL TO SAFE HEIGHT)
G00 X-168.500 Y-5.100 (MOVE TO MILLING START POINT 10)
G01 Z-1.000 F402.3 (INITIAL CUTTING)
G01 X-168.500 Y-5.100 F804.6 (MILLING PASS)
G00 Z100.0 (RAISE TOOL TO SAFE HEIGHT)
G00 X-168.500 Y7.500 (MOVE TO MILLING START POINT 11)
G01 Z-1.000 F402.3 (INITIAL CUTTING)
G01 X168.500 Y7.500 F804.6 (MILLING PASS)
G00 Z100.0 (RAISE TOOL TO SAFE HEIGHT)
G00 X-168.500 Y20.100 (MOVE TO MILLING START POINT 12)
G01 Z-1.000 F402.3 (INITIAL CUTTING)
G01 X-168.500 Y20.100 F804.6 (MILLING PASS)
G00 Z100.0 (RAISE TOOL TO SAFE HEIGHT)
G00 X-168.500 Y32.700 (MOVE TO MILLING START POINT 13)
G01 Z-1.000 F402.3 (INITIAL CUTTING)
G01 X168.500 Y32.700 F804.6 (MILLING PASS)
G00 Z100.0 (RAISE TOOL TO SAFE HEIGHT)
G00 X-168.500 Y45.300 (MOVE TO MILLING START POINT 14)
G01 Z-1.000 F402.3 (INITIAL CUTTING)
G01 X-168.500 Y45.300 F804.6 (MILLING PASS)
G00 Z100.0 (RAISE TOOL TO SAFE HEIGHT)
G00 X-168.500 Y57.900 (MOVE TO MILLING START POINT 15)
G01 Z-1.000 F402.3 (INITIAL CUTTING)
G01 X168.500 Y57.900 F804.6 (MILLING PASS)
G00 Z100.0 (RAISE TOOL TO SAFE HEIGHT)
G00 X-168.500 Y70.500 (MOVE TO MILLING START POINT 16)
G01 Z-1.000 F402.3 (INITIAL CUTTING)
G01 X-168.500 Y70.500 F804.6 (MILLING PASS)
G00 Z100.0 (RAISE TOOL TO SAFE HEIGHT)
G00 X-168.500 Y83.100 (MOVE TO MILLING START POINT 17)
G01 Z-1.000 F402.3 (INITIAL CUTTING)
G01 X168.500 Y83.100 F804.6 (MILLING PASS)
G00 Z100.0 (RAISE TOOL TO SAFE HEIGHT)
G00 X-168.500 Y95.700 (MOVE TO MILLING START POINT 18)
G01 Z-1.000 F402.3 (INITIAL CUTTING)
G01 X-168.500 Y95.700 F804.6 (MILLING PASS)
G00 Z100.0 (RAISE TOOL TO SAFE HEIGHT)
G00 X-168.500 Y108.300 (MOVE TO MILLING START POINT 19)
G01 Z-1.000 F402.3 (INITIAL CUTTING)
G01 X168.500 Y108.300 F804.6 (MILLING PASS)
G00 Z100.0 (RAISE TOOL TO SAFE HEIGHT)

(MILLING OPERATION - CIRCLE)
G00 X-6.000 Y0.000 (MOVE TO CIRCULAR ARC START POINT)
G01 Z-1.000 F402.3 (INITIAL CUTTING)
G02 X-6.000 Y0.000 I6.000 J0 F804.6 (CLOCKWISE CIRCULAR MILLING)
G01 Z-2.000 F402.3 (CONTINUE CUTTING)
G02 X-6.000 Y0.000 I6.000 J0 F804.6 (CLOCKWISE CIRCULAR MILLING)
M09 (COOLANT OFF)
G00 Z100.0 (RAPID MOVE TO UNIFIED SAFE HEIGHT)
G49 (CANCEL TOOL LENGTH COMPENSATION)

(PROGRAM END)
M05 (SPINDLE STOP)
G00 Z100.0 (RAISE TOOL TO SAFE HEIGHT)
G00 X10.0 Y10.0 (MOVE TO SAFE POSITION - USER CAN MODIFY AS NEEDED)
M30 (PROGRAM END)