O0001 (MAIN PROGRAM)
(DESCRIPTION: FANUC CNC PROGRAM FOR FEATURE MACHINING)
(DATE: 2025-12-22)
(AUTHOR: CNC AGENT)

(PROGRAM PREPARATION)
G21 (MILLIMETER UNITS)
G90 (ABSOLUTE COORDINATE SYSTEM)
G40 (CANCEL TOOL RADIUS COMPENSATION)
G49 (CANCEL TOOL LENGTH COMPENSATION)
G80 (CANCEL FIXED CYCLE)

(COORDINATE SYSTEM SETUP)
(G90 - USE ABSOLUTE COORDINATE SYSTEM)
(ORIGIN (0,0) LOCATED AT TOP-LEFT OF WORKPIECE (G54))
(Y AXIS POSITIVE DIRECTION DOWNWARD, X AXIS POSITIVE RIGHTWARD)

(MOVE TO SAFE HEIGHT)
G00 Z50 (RAPID MOVE TO SAFE HEIGHT)

(THREADING PROCESS - TOTAL 1 HOLES)
(HOLE 1: POSITION X10.000 Y-16.000)

(STEP 1: PILOT DRILLING OPERATION)
(TOOL CHANGE - T01: CENTER DRILL)
T1 M06 (TOOL CHANGE - CENTER DRILL)
M03 S1000 (SPINDLE FORWARD, PILOT DRILLING SPEED)
G04 P1000 (DELAY 1 SECOND, WAIT FOR SPINDLE TO REACH SET SPEED)
G82 Z-1 R2 P1000 F50 (SPOT DRILLING CYCLE, DWELL 1 SECOND)
G82 X10.000 Y-16.000 Z-1 R2 P1000 F50 (PILOT DRILLING 1: X10.0,Y-16.0)
G80 (CANCEL FIXED CYCLE)
G00 Z50 (RAPID MOVE TO SAFE HEIGHT)

(STEP 2: DRILLING OPERATION)
(TOOL CHANGE - T02: DRILL BIT, HOLE DIAMETER 8.5mm)
T2 M06 (TOOL CHANGE - DRILL BIT)
M03 S800 (SPINDLE FORWARD, DRILLING SPEED)
G04 P1000 (DELAY 1 SECOND, WAIT FOR SPINDLE TO REACH SET SPEED)
G83 Z-18.333333333333332 R2 Q1 F100 (DEEP HOLE DRILLING CYCLE)
G83 X10.000 Y-16.000 Z-18.333333333333332 R2 Q1 F100 (DRILLING 1: X10.0,Y-16.0)
G80 (CANCEL FIXED CYCLE)
G00 Z50 (RAPID MOVE TO SAFE HEIGHT)

(STEP 3: TAPPING OPERATION)
(TOOL CHANGE - T03: TAP)
T3 M06 (TOOL CHANGE - TAP)
M03 S300 (SPINDLE FORWARD, TAPPING SPEED)
G04 P1000 (DELAY 1 SECOND, WAIT FOR SPINDLE TO REACH SET SPEED)
G84 Z-14.0 R2 F7.5 (TAPPING CYCLE)
G84 X10.000 Y-16.000 Z-14.0 R2 F7.5 (TAPPING 1: X10.0,Y-16.0 - M10 THREAD)
G80 (CANCEL FIXED CYCLE)
M04 S300 (SPINDLE REVERSE, PREPARE FOR RETRACTION)
G00 Z50 (RAPID RETRACTION TO SAFE HEIGHT)
M05 (SPINDLE STOP)

(PROGRAM END)
M05 (SPINDLE STOP)
G00 Z100 (RAISE TOOL TO SAFE HEIGHT)
G00 X0 Y0 (RETURN TO ORIGIN)
G00 Z0 (RETURN Z-AXIS TO ORIGIN)
M30 (PROGRAM END)