O0001 (MAIN PROGRAM)
(DESCRIPTION: FANUC CNC PROGRAM FOR FEATURE MACHINING)
(DATE: 2025-12-22)
(AUTHOR: CNC AGENT)

(PROGRAM PREPARATION)
G21 (MILLIMETER UNITS)
G90 (ABSOLUTE COORDINATE SYSTEM)
G40 (CANCEL TOOL RADIUS COMPENSATION)
G49 (CANCEL TOOL LENGTH COMPENSATION)
G80 (CANCEL FIXED CYCLE)

(COORDINATE SYSTEM SETUP)
(G90 - USE ABSOLUTE COORDINATE SYSTEM)
(ORIGIN (0,0) LOCATED AT TOP-LEFT OF WORKPIECE (G54))
(Y AXIS POSITIVE DIRECTION DOWNWARD, X AXIS POSITIVE RIGHTWARD)

(MOVE TO SAFE HEIGHT)
G00 Z50 (RAPID MOVE TO SAFE HEIGHT)

(THREADING OPERATION - NO SPECIFIC POSITIONS DETECTED)
(USING EXAMPLE POSITION 50.0, 50.0 - MODIFY ACCORDING TO ACTUAL DRAWING)
(THREADING PROCESS - TOTAL 1 HOLE - EXAMPLE)
(HOLE 1: POSITION X50.000 Y50.000 - MODIFY TO ACTUAL POSITION)

(STEP 1: PILOT DRILLING OPERATION)
(TOOL CHANGE - T01: CENTER DRILL)
T1 M06 (TOOL CHANGE - CENTER DRILL)
M03 S1000 (SPINDLE FORWARD, PILOT DRILLING SPEED)
G04 P1000 (DELAY 1 SECOND, WAIT FOR SPINDLE TO REACH SET SPEED)
G43 H1 Z100. (ACTIVATE TOOL LENGTH COMPENSATION FOR T1)
M08 (COOLANT ON)
G82 X50.000 Y50.000 Z-1 R2 P1000 F50 (SPOT DRILLING CYCLE, DWELL 1 SECOND)
G80 (CANCEL FIXED CYCLE)
M09 (COOLANT OFF)
G00 Z50 (RAPID MOVE TO SAFE HEIGHT)

(STEP 2: DRILLING OPERATION)
(TOOL CHANGE - T02: DRILL BIT, HOLE DIAMETER 8.5mm)
T2 M06 (TOOL CHANGE - DRILL BIT)
M03 S800 (SPINDLE FORWARD, DRILLING SPEED)
G04 P1000 (DELAY 1 SECOND, WAIT FOR SPINDLE TO REACH SET SPEED)
G43 H2 Z100. (ACTIVATE TOOL LENGTH COMPENSATION FOR T2)
M08 (COOLANT ON)
G83 X50.000 Y50.000 Z-18.333333333333332 R2 Q1 F100 (DEEP HOLE DRILLING CYCLE)
G80 (CANCEL FIXED CYCLE)
M09 (COOLANT OFF)
G00 Z50 (RAPID MOVE TO SAFE HEIGHT)

(STEP 3: TAPPING OPERATION)
(TOOL CHANGE - T03: TAP)
T3 M06 (TOOL CHANGE - TAP)
M03 S300 (SPINDLE FORWARD, TAPPING SPEED)
G04 P1000 (DELAY 1 SECOND, WAIT FOR SPINDLE TO REACH SET SPEED)
G43 H3 Z100. (ACTIVATE TOOL LENGTH COMPENSATION FOR T3)
M08 (COOLANT ON)
G84 X50.000 Y50.000 Z-14.0 R2 F450.0 (TAPPING 1: X50.0,Y50.0 - M10 THREAD)
G80 (CANCEL FIXED CYCLE)
M09 (COOLANT OFF)
M04 S300 (SPINDLE REVERSE, PREPARE FOR RETRACTION)
G00 Z50 (RAPID RETRACTION TO SAFE HEIGHT)
M05 (SPINDLE STOP)

(PROGRAM END)
M05 (SPINDLE STOP)
G00 Z100 (RAISE TOOL TO SAFE HEIGHT)
G00 X0 Y0 (RETURN TO ORIGIN)
G00 Z0 (RETURN Z-AXIS TO ORIGIN)
M30 (PROGRAM END)